static/img/kroki/d4f13d46505972526fd1cfb3968773cb.svg

<?xml version="1.0" encoding="us-ascii" standalone="no"?><svg xmlns="http://www.w3.org/2000/svg" xmlns:xlink="http://www.w3.org/1999/xlink" contentStyleType="text/css" height="152px" preserveAspectRatio="none" style="width:2466px;height:152px;" version="1.1" viewBox="0 0 2466 152" width="2466px" zoomAndPan="magnify"><defs/><g><!--class azure_cosmos_db_postgresql_cluster--><g id="elem_azure_cosmos_db_postgresql_cluster"><rect codeLine="23" fill="#3D176E" height="39.7891" id="azure_cosmos_db_postgresql_cluster" rx="2.5" ry="2.5" style="stroke:#000D19;stroke-width:0.5;" width="346" x="1195" y="7"/><ellipse cx="1210" cy="26.8945" fill="#ADD1B2" rx="11" ry="11" style="stroke:#181818;stroke-width:1.0;"/><path d="M1212.9688,32.5352 Q1212.3906,32.832 1211.75,32.9727 Q1211.1094,33.1289 1210.4063,33.1289 Q1207.9063,33.1289 1206.5781,31.4883 Q1205.2656,29.832 1205.2656,26.707 Q1205.2656,23.582 1206.5781,21.9258 Q1207.9063,20.2695 1210.4063,20.2695 Q1211.1094,20.2695 1211.75,20.4258 Q1212.4063,20.582 1212.9688,20.8789 L1212.9688,23.5977 Q1212.3438,23.0195 1211.75,22.7539 Q1211.1563,22.4727 1210.5313,22.4727 Q1209.1875,22.4727 1208.5,23.5508 Q1207.8125,24.6133 1207.8125,26.707 Q1207.8125,28.8008 1208.5,29.8789 Q1209.1875,30.9414 1210.5313,30.9414 Q1211.1563,30.9414 1211.75,30.6758 Q1212.3438,30.3945 1212.9688,29.8164 L1212.9688,32.5352 Z " fill="#000000"/><text fill="#D9B8FF" font-family="Helvetica" font-size="17" lengthAdjust="spacing" textLength="304" x="1229" y="32.7798">azure_cosmos_db_postgresql_cluster</text></g><!--class azure_cosmos_db_postgresql_cluster_configuration--><g id="elem_azure_cosmos_db_postgresql_cluster_configuration"><rect codeLine="26" fill="#3D176E" height="39.7891" id="azure_cosmos_db_postgresql_cluster_configuration" rx="2.5" ry="2.5" style="stroke:#000D19;stroke-width:0.5;" width="466" x="7" y="106.79"/><ellipse cx="22" cy="126.6845" fill="#ADD1B2" rx="11" ry="11" style="stroke:#181818;stroke-width:1.0;"/><path d="M24.9688,132.3252 Q24.3906,132.622 23.75,132.7627 Q23.1094,132.9189 22.4063,132.9189 Q19.9063,132.9189 18.5781,131.2783 Q17.2656,129.622 17.2656,126.497 Q17.2656,123.372 18.5781,121.7158 Q19.9063,120.0595 22.4063,120.0595 Q23.1094,120.0595 23.75,120.2158 Q24.4063,120.372 24.9688,120.6689 L24.9688,123.3877 Q24.3438,122.8095 23.75,122.5439 Q23.1563,122.2627 22.5313,122.2627 Q21.1875,122.2627 20.5,123.3408 Q19.8125,124.4033 19.8125,126.497 Q19.8125,128.5908 20.5,129.6689 Q21.1875,130.7314 22.5313,130.7314 Q23.1563,130.7314 23.75,130.4658 Q24.3438,130.1845 24.9688,129.6064 L24.9688,132.3252 Z " fill="#000000"/><text fill="#D9B8FF" font-family="Helvetica" font-size="17" lengthAdjust="spacing" textLength="424" x="41" y="132.5698">azure_cosmos_db_postgresql_cluster_configuration</text></g><!--class azure_cosmos_db_postgresql_cluster_private_endpoint_connection--><g id="elem_azure_cosmos_db_postgresql_cluster_private_endpoint_connection"><rect codeLine="29" fill="#3D176E" height="39.7891" id="azure_cosmos_db_postgresql_cluster_private_endpoint_connection" rx="2.5" ry="2.5" style="stroke:#000D19;stroke-width:0.5;" width="597" x="508.5" y="106.79"/><ellipse cx="523.5" cy="126.6845" fill="#ADD1B2" rx="11" ry="11" style="stroke:#181818;stroke-width:1.0;"/><path d="M526.4688,132.3252 Q525.8906,132.622 525.25,132.7627 Q524.6094,132.9189 523.9063,132.9189 Q521.4063,132.9189 520.0781,131.2783 Q518.7656,129.622 518.7656,126.497 Q518.7656,123.372 520.0781,121.7158 Q521.4063,120.0595 523.9063,120.0595 Q524.6094,120.0595 525.25,120.2158 Q525.9063,120.372 526.4688,120.6689 L526.4688,123.3877 Q525.8438,122.8095 525.25,122.5439 Q524.6563,122.2627 524.0313,122.2627 Q522.6875,122.2627 522,123.3408 Q521.3125,124.4033 521.3125,126.497 Q521.3125,128.5908 522,129.6689 Q522.6875,130.7314 524.0313,130.7314 Q524.6563,130.7314 525.25,130.4658 Q525.8438,130.1845 526.4688,129.6064 L526.4688,132.3252 Z " fill="#000000"/><text fill="#D9B8FF" font-family="Helvetica" font-size="17" lengthAdjust="spacing" textLength="555" x="542.5" y="132.5698">azure_cosmos_db_postgresql_cluster_private_endpoint_connection</text></g><!--class azure_cosmos_db_postgresql_cluster_private_link--><g id="elem_azure_cosmos_db_postgresql_cluster_private_link"><rect codeLine="32" fill="#3D176E" height="39.7891" id="azure_cosmos_db_postgresql_cluster_private_link" rx="2.5" ry="2.5" style="stroke:#000D19;stroke-width:0.5;" width="454" x="1141" y="106.79"/><ellipse cx="1156" cy="126.6845" fill="#ADD1B2" rx="11" ry="11" style="stroke:#181818;stroke-width:1.0;"/><path d="M1158.9688,132.3252 Q1158.3906,132.622 1157.75,132.7627 Q1157.1094,132.9189 1156.4063,132.9189 Q1153.9063,132.9189 1152.5781,131.2783 Q1151.2656,129.622 1151.2656,126.497 Q1151.2656,123.372 1152.5781,121.7158 Q1153.9063,120.0595 1156.4063,120.0595 Q1157.1094,120.0595 1157.75,120.2158 Q1158.4063,120.372 1158.9688,120.6689 L1158.9688,123.3877 Q1158.3438,122.8095 1157.75,122.5439 Q1157.1563,122.2627 1156.5313,122.2627 Q1155.1875,122.2627 1154.5,123.3408 Q1153.8125,124.4033 1153.8125,126.497 Q1153.8125,128.5908 1154.5,129.6689 Q1155.1875,130.7314 1156.5313,130.7314 Q1157.1563,130.7314 1157.75,130.4658 Q1158.3438,130.1845 1158.9688,129.6064 L1158.9688,132.3252 Z " fill="#000000"/><text fill="#D9B8FF" font-family="Helvetica" font-size="17" lengthAdjust="spacing" textLength="412" x="1175" y="132.5698">azure_cosmos_db_postgresql_cluster_private_link</text></g><!--class azure_cosmos_db_postgresql_cluster_role--><g id="elem_azure_cosmos_db_postgresql_cluster_role"><rect codeLine="35" fill="#3D176E" height="39.7891" id="azure_cosmos_db_postgresql_cluster_role" rx="2.5" ry="2.5" style="stroke:#000D19;stroke-width:0.5;" width="387" x="1630.5" y="106.79"/><ellipse cx="1645.5" cy="126.6845" fill="#ADD1B2" rx="11" ry="11" style="stroke:#181818;stroke-width:1.0;"/><path d="M1648.4688,132.3252 Q1647.8906,132.622 1647.25,132.7627 Q1646.6094,132.9189 1645.9063,132.9189 Q1643.4063,132.9189 1642.0781,131.2783 Q1640.7656,129.622 1640.7656,126.497 Q1640.7656,123.372 1642.0781,121.7158 Q1643.4063,120.0595 1645.9063,120.0595 Q1646.6094,120.0595 1647.25,120.2158 Q1647.9063,120.372 1648.4688,120.6689 L1648.4688,123.3877 Q1647.8438,122.8095 1647.25,122.5439 Q1646.6563,122.2627 1646.0313,122.2627 Q1644.6875,122.2627 1644,123.3408 Q1643.3125,124.4033 1643.3125,126.497 Q1643.3125,128.5908 1644,129.6689 Q1644.6875,130.7314 1646.0313,130.7314 Q1646.6563,130.7314 1647.25,130.4658 Q1647.8438,130.1845 1648.4688,129.6064 L1648.4688,132.3252 Z " fill="#000000"/><text fill="#D9B8FF" font-family="Helvetica" font-size="17" lengthAdjust="spacing" textLength="345" x="1664.5" y="132.5698">azure_cosmos_db_postgresql_cluster_role</text></g><!--class azure_cosmos_db_postgresql_cluster_server--><g id="elem_azure_cosmos_db_postgresql_cluster_server"><rect codeLine="38" fill="#3D176E" height="39.7891" id="azure_cosmos_db_postgresql_cluster_server" rx="2.5" ry="2.5" style="stroke:#000D19;stroke-width:0.5;" width="407" x="2052.5" y="106.79"/><ellipse cx="2067.5" cy="126.6845" fill="#ADD1B2" rx="11" ry="11" style="stroke:#181818;stroke-width:1.0;"/><path d="M2070.4688,132.3252 Q2069.8906,132.622 2069.25,132.7627 Q2068.6094,132.9189 2067.9063,132.9189 Q2065.4063,132.9189 2064.0781,131.2783 Q2062.7656,129.622 2062.7656,126.497 Q2062.7656,123.372 2064.0781,121.7158 Q2065.4063,120.0595 2067.9063,120.0595 Q2068.6094,120.0595 2069.25,120.2158 Q2069.9063,120.372 2070.4688,120.6689 L2070.4688,123.3877 Q2069.8438,122.8095 2069.25,122.5439 Q2068.6563,122.2627 2068.0313,122.2627 Q2066.6875,122.2627 2066,123.3408 Q2065.3125,124.4033 2065.3125,126.497 Q2065.3125,128.5908 2066,129.6689 Q2066.6875,130.7314 2068.0313,130.7314 Q2068.6563,130.7314 2069.25,130.4658 Q2069.8438,130.1845 2070.4688,129.6064 L2070.4688,132.3252 Z " fill="#000000"/><text fill="#D9B8FF" font-family="Helvetica" font-size="17" lengthAdjust="spacing" textLength="365" x="2086.5" y="132.5698">azure_cosmos_db_postgresql_cluster_server</text></g><!--link azure_cosmos_db_postgresql_cluster to azure_cosmos_db_postgresql_cluster_configuration--><g id="link_azure_cosmos_db_postgresql_cluster_azure_cosmos_db_postgresql_cluster_configuration"><path codeLine="41" d="M1194.53,42.93 C998.38,59.94 684.4176,87.162 469.6476,105.772 " fill="none" id="azure_cosmos_db_postgresql_cluster-to-azure_cosmos_db_postgresql_cluster_configuration" style="stroke:#1A83AF;stroke-width:2.0;"/><polygon fill="#1A83AF" points="463.67,106.29,472.9817,109.4981,468.6513,105.8584,472.2911,101.528,463.67,106.29" style="stroke:#1A83AF;stroke-width:2.0;"/></g><!--link azure_cosmos_db_postgresql_cluster to azure_cosmos_db_postgresql_cluster_private_endpoint_connection--><g id="link_azure_cosmos_db_postgresql_cluster_azure_cosmos_db_postgresql_cluster_private_endpoint_connection"><path codeLine="42" d="M1256.83,47.27 C1158.6,64.4 1022.0209,88.2097 923.8609,105.3197 " fill="none" id="azure_cosmos_db_postgresql_cluster-to-azure_cosmos_db_postgresql_cluster_private_endpoint_connection" style="stroke:#1A83AF;stroke-width:2.0;"/><polygon fill="#1A83AF" points="917.95,106.35,927.5032,108.7451,922.8757,105.4914,926.1294,100.864,917.95,106.35" style="stroke:#1A83AF;stroke-width:2.0;"/></g><!--link azure_cosmos_db_postgresql_cluster to azure_cosmos_db_postgresql_cluster_private_link--><g id="link_azure_cosmos_db_postgresql_cluster_azure_cosmos_db_postgresql_cluster_private_link"><path codeLine="43" d="M1368,47.22 C1368,64.36 1368,83.27 1368,100.41 " fill="none" id="azure_cosmos_db_postgresql_cluster-to-azure_cosmos_db_postgresql_cluster_private_link" style="stroke:#1A83AF;stroke-width:2.0;"/><polygon fill="#1A83AF" points="1368,106.41,1372,97.41,1368,101.41,1364,97.41,1368,106.41" style="stroke:#1A83AF;stroke-width:2.0;"/></g><!--link azure_cosmos_db_postgresql_cluster to azure_cosmos_db_postgresql_cluster_role--><g id="link_azure_cosmos_db_postgresql_cluster_azure_cosmos_db_postgresql_cluster_role"><path codeLine="44" d="M1458.36,47.27 C1538.2,64.4 1648.1634,87.982 1727.9534,105.092 " fill="none" id="azure_cosmos_db_postgresql_cluster-to-azure_cosmos_db_postgresql_cluster_role" style="stroke:#1A83AF;stroke-width:2.0;"/><polygon fill="#1A83AF" points="1733.82,106.35,1725.8587,100.5519,1728.9311,105.3016,1724.1814,108.374,1733.82,106.35" style="stroke:#1A83AF;stroke-width:2.0;"/></g><!--link azure_cosmos_db_postgresql_cluster to azure_cosmos_db_postgresql_cluster_server--><g id="link_azure_cosmos_db_postgresql_cluster_azure_cosmos_db_postgresql_cluster_server"><path codeLine="45" d="M1541.32,46.98 C1696.78,64.1 1917.866,88.4535 2074.116,105.6535 " fill="none" id="azure_cosmos_db_postgresql_cluster-to-azure_cosmos_db_postgresql_cluster_server" style="stroke:#1A83AF;stroke-width:2.0;"/><polygon fill="#1A83AF" points="2080.08,106.31,2071.5717,101.3492,2075.11,105.7629,2070.6964,109.3012,2080.08,106.31" style="stroke:#1A83AF;stroke-width:2.0;"/></g><!--SRC=[jP5FIyD04CNl-HGBFHSQYxQz2B5Gz5B4UXC9c-nikcIp4sStBQtutMsibPZOFq5odVdDcpTlbae0Wont6vP15W5PpwRAv9nunW8YN4zH8x6Ub5mEH_Nc38qx2ynv1kmUz0gSYdcTU5wgE3LWBRkgjEvud2Q4XH5xUKVSs5qBZAjGKysj3PmZ5HKEAcR491fBMIVhehsXy4StqC2G1D0tCXWCX3-f8sTNdRpxXrYeBJ2_6jeS7JHiDbPyKITTbaJ5PEFGG_-enqSkX389kwxKdlQUo03zgY-MNE2wf2NNjhh6EY10jybXshWA9cCXHt_23yTWBowZOtnR48GnsWnjAA8mH-iI0lkcmrWNfGvxzxoFY-bTqqYL5CITGjDoDYUruWv2C297PLmfPY3-Xv9M9cqvIgYXvOW5MXs2kY3G_alF3yR3OFRQlsqTQHSBJkJUvRhoELtebn_iGdV_PkyJ]--></g></svg>

<svg xmlns="http://www.w3.org/2000/svg" width="2466" height="152" viewBox="0 0 2466 152"><rect width="346" height="39.789" x="1195" y="7" fill="#3D176E" rx="2.5" ry="2.5" style="stroke:#000d19;stroke-width:.5"/><circle cx="1210" cy="26.895" r="11" fill="#ADD1B2" style="stroke:#181818;stroke-width:1"/><path d="M1212.969 32.535q-.578.297-1.219.438-.64.156-1.344.156-2.5 0-3.828-1.64-1.312-1.657-1.312-4.782t1.312-4.781q1.328-1.656 3.828-1.656.703 0 1.344.156.656.156 1.219.453v2.719q-.625-.578-1.219-.844-.594-.281-1.219-.281-1.343 0-2.031 1.078-.687 1.062-.687 3.156t.687 3.172q.688 1.062 2.031 1.062.625 0 1.219-.265.594-.281 1.219-.86z"/><text x="1229" y="32.78" fill="#D9B8FF" font-family="Helvetica" font-size="17" textLength="304">azure_cosmos_db_postgresql_cluster</text><rect width="466" height="39.789" x="7" y="106.79" fill="#3D176E" rx="2.5" ry="2.5" style="stroke:#000d19;stroke-width:.5"/><circle cx="22" cy="126.684" r="11" fill="#ADD1B2" style="stroke:#181818;stroke-width:1"/><path d="M24.969 132.325q-.578.297-1.219.438-.64.156-1.344.156-2.5 0-3.828-1.64-1.312-1.657-1.312-4.782t1.312-4.781q1.328-1.656 3.828-1.656.703 0 1.344.156.656.156 1.219.453v2.719q-.625-.579-1.219-.844-.594-.281-1.219-.281-1.343 0-2.031 1.078-.687 1.062-.687 3.156t.687 3.172q.688 1.062 2.031 1.062.625 0 1.219-.265.594-.281 1.219-.86z"/><text x="41" y="132.57" fill="#D9B8FF" font-family="Helvetica" font-size="17" textLength="424">azure_cosmos_db_postgresql_cluster_configuration</text><rect width="597" height="39.789" x="508.5" y="106.79" fill="#3D176E" rx="2.5" ry="2.5" style="stroke:#000d19;stroke-width:.5"/><circle cx="523.5" cy="126.684" r="11" fill="#ADD1B2" style="stroke:#181818;stroke-width:1"/><path d="M526.469 132.325q-.578.297-1.219.438-.64.156-1.344.156-2.5 0-3.828-1.64-1.312-1.657-1.312-4.782t1.312-4.781q1.328-1.656 3.828-1.656.703 0 1.344.156.656.156 1.219.453v2.719q-.625-.579-1.219-.844-.594-.281-1.219-.281-1.343 0-2.031 1.078-.687 1.062-.687 3.156t.687 3.172q.688 1.062 2.031 1.062.625 0 1.219-.265.594-.281 1.219-.86z"/><text x="542.5" y="132.57" fill="#D9B8FF" font-family="Helvetica" font-size="17" textLength="555">azure_cosmos_db_postgresql_cluster_private_endpoint_connection</text><rect width="454" height="39.789" x="1141" y="106.79" fill="#3D176E" rx="2.5" ry="2.5" style="stroke:#000d19;stroke-width:.5"/><circle cx="1156" cy="126.684" r="11" fill="#ADD1B2" style="stroke:#181818;stroke-width:1"/><path d="M1158.969 132.325q-.578.297-1.219.438-.64.156-1.344.156-2.5 0-3.828-1.64-1.312-1.657-1.312-4.782t1.312-4.781q1.328-1.656 3.828-1.656.703 0 1.344.156.656.156 1.219.453v2.719q-.625-.579-1.219-.844-.594-.281-1.219-.281-1.343 0-2.031 1.078-.687 1.062-.687 3.156t.687 3.172q.688 1.062 2.031 1.062.625 0 1.219-.265.594-.281 1.219-.86z"/><text x="1175" y="132.57" fill="#D9B8FF" font-family="Helvetica" font-size="17" textLength="412">azure_cosmos_db_postgresql_cluster_private_link</text><rect width="387" height="39.789" x="1630.5" y="106.79" fill="#3D176E" rx="2.5" ry="2.5" style="stroke:#000d19;stroke-width:.5"/><circle cx="1645.5" cy="126.684" r="11" fill="#ADD1B2" style="stroke:#181818;stroke-width:1"/><path d="M1648.469 132.325q-.578.297-1.219.438-.64.156-1.344.156-2.5 0-3.828-1.64-1.312-1.657-1.312-4.782t1.312-4.781q1.328-1.656 3.828-1.656.703 0 1.344.156.656.156 1.219.453v2.719q-.625-.579-1.219-.844-.594-.281-1.219-.281-1.343 0-2.031 1.078-.687 1.062-.687 3.156t.687 3.172q.688 1.062 2.031 1.062.625 0 1.219-.265.594-.281 1.219-.86z"/><text x="1664.5" y="132.57" fill="#D9B8FF" font-family="Helvetica" font-size="17" textLength="345">azure_cosmos_db_postgresql_cluster_role</text><rect width="407" height="39.789" x="2052.5" y="106.79" fill="#3D176E" rx="2.5" ry="2.5" style="stroke:#000d19;stroke-width:.5"/><circle cx="2067.5" cy="126.684" r="11" fill="#ADD1B2" style="stroke:#181818;stroke-width:1"/><path d="M2070.469 132.325q-.578.297-1.219.438-.64.156-1.344.156-2.5 0-3.828-1.64-1.312-1.657-1.312-4.782t1.312-4.781q1.328-1.656 3.828-1.656.703 0 1.344.156.656.156 1.219.453v2.719q-.625-.579-1.219-.844-.594-.281-1.219-.281-1.343 0-2.031 1.078-.687 1.062-.687 3.156t.687 3.172q.688 1.062 2.031 1.062.625 0 1.219-.265.594-.281 1.219-.86z"/><text x="2086.5" y="132.57" fill="#D9B8FF" font-family="Helvetica" font-size="17" textLength="365">azure_cosmos_db_postgresql_cluster_server</text><path fill="none" d="M1194.53 42.93c-196.15 17.01-510.112 44.232-724.882 62.842" style="stroke:#1a83af;stroke-width:2"/><path fill="#1A83AF" d="m463.67 106.29 9.312 3.208-4.33-3.64 3.64-4.33z" style="stroke:#1a83af;stroke-width:2"/><path fill="none" d="M1256.83 47.27c-98.23 17.13-234.81 40.94-332.97 58.05" style="stroke:#1a83af;stroke-width:2"/><path fill="#1A83AF" d="m917.95 106.35 9.553 2.395-4.627-3.254 3.253-4.627z" style="stroke:#1a83af;stroke-width:2"/><path fill="none" d="M1368 47.22v53.19" style="stroke:#1a83af;stroke-width:2"/><path fill="#1A83AF" d="m1368 106.41 4-9-4 4-4-4z" style="stroke:#1a83af;stroke-width:2"/><path fill="none" d="M1458.36 47.27c79.84 17.13 189.803 40.712 269.593 57.822" style="stroke:#1a83af;stroke-width:2"/><path fill="#1A83AF" d="m1733.82 106.35-7.961-5.798 3.072 4.75-4.75 3.072z" style="stroke:#1a83af;stroke-width:2"/><path fill="none" d="M1541.32 46.98c155.46 17.12 376.546 41.474 532.796 58.674" style="stroke:#1a83af;stroke-width:2"/><path fill="#1A83AF" d="m2080.08 106.31-8.508-4.96 3.538 4.413-4.414 3.538z" style="stroke:#1a83af;stroke-width:2"/></svg>
